X: 442
T:Unknown Jig N143
M:6/8
L:1/8
R:Jig
N:Posted to the woodenflute mailing list October 2001
Z:Kevin Gow
K:D
dAF FEF | FEF F2d | AFE EFE | EFE EFA| dAF FEF | DFA d2e |!
fed cdB |1cA^G ABc:|2cA^G A2B|:cAe cAe | cAc edc | dBf dBf |!
dBd fed | cAe cAe | cAc efg |fed cdB |1cA^G A2B:|2cA^G A2d||!
|:cBA BAF | dAF D2d | cBA BAF | AFE E2d | cBA BAF | DFA d2e|!
fed cBc |1BA^G A2d:|2BA^G A2B|:cAA eAA | fef edc | dBB fBB|!
fef fed | cAA eAA | fef efg | fed cdB |1BA^G A2B:|2BA^G A3||

